lib/svg/credit-card.svg

<svg xmlns="http://www.w3.org/2000/svg" width="16" height="16" viewBox="0 0 16 16"><path d="M12 9H2V8h10v1zm4-6v9c0 .55-.45 1-1 1H1c-.55 0-1-.45-1-1V3c0-.55.45-1 1-1h14c.55 0 1 .45 1 1zm-1 3H1v6h14V6zm0-3H1v1h14V3zm-9 7H2v1h4v-1z"/></svg>

<?xml version="1.0" encoding="UTF-8" standalone="no"?>
<svg width="16px" height="16px" viewBox="0 0 16 16" version="1.1" xmlns="http://www.w3.org/2000/svg" xmlns:xlink="http://www.w3.org/1999/xlink">
    <!-- Generator: Sketch 3.8.3 (29802) - http://www.bohemiancoding.com/sketch -->
    <title>credit-card</title>
    <desc>Created with Sketch.</desc>
    <defs></defs>
    <g id="Octicons" stroke="none" stroke-width="1" fill="none" fill-rule="evenodd">
        <g id="credit-card" fill="#000000">
            <path d="M12,9 L2,9 L2,8 L12,8 L12,9 L12,9 Z M16,3 L16,12 C16,12.55 15.55,13 15,13 L1,13 C0.45,13 0,12.55 0,12 L0,3 C0,2.45 0.45,2 1,2 L15,2 C15.55,2 16,2.45 16,3 L16,3 Z M15,6 L1,6 L1,12 L15,12 L15,6 L15,6 Z M15,3 L1,3 L1,4 L15,4 L15,3 L15,3 Z M6,10 L2,10 L2,11 L6,11 L6,10 L6,10 Z" id="Shape"></path>
        </g>
    </g>
</svg>
